IMG/linkedin.svg

<svg viewBox="0 0 112.85 113.11" xmlns="http://www.w3.org/2000/svg"><path d="m183.89 82.4h-93.7a9.6 9.6 0 0 0 -9.57 9.6v94a9.6 9.6 0 0 0 9.57 9.57h93.7a9.6 9.6 0 0 0 9.58-9.57v-94a9.61 9.61 0 0 0 -9.58-9.6zm-69.32 96h-16.57v-53.87h16.62zm-8.11-61.27a9.45 9.45 0 1 1 9.45-9.45 9.45 9.45 0 0 1 -9.45 9.45zm70.54 60.64h-16.63l.21-32.43c-1.41-4.14-3.72-7.15-7.45-7.4-7.32-.51-10.24 3.54-11.4 7.19v33.53h-16.62v-53.87h16.62v6.31c3.83-5.27 6.57-7.46 18.93-7.46 16.34 0 16.33 21.7 16.33 21.7z" fill="#fff" transform="translate(-80.62 -82.4)"/></svg>

<svg xmlns="http://www.w3.org/2000/svg" viewBox="0 0 112.85 113.11"><defs><style>.cls-1{fill:#fff;}</style></defs><g id="Calque_3" data-name="Calque 3"><path class="cls-1" d="M183.89,82.4H90.19A9.6,9.6,0,0,0,80.62,92v94a9.6,9.6,0,0,0,9.57,9.57h93.7a9.6,9.6,0,0,0,9.58-9.57V92A9.61,9.61,0,0,0,183.89,82.4Zm-69.32,96H98V124.53h16.62Zm-8.11-61.27a9.45,9.45,0,1,1,9.45-9.45A9.45,9.45,0,0,1,106.46,117.13ZM177,177.77H160.37l.21-32.43c-1.41-4.14-3.72-7.15-7.45-7.4-7.32-.51-10.24,3.54-11.4,7.19v33.53H125.11V124.79h16.62v6.31c3.83-5.27,6.57-7.46,18.93-7.46,16.34,0,16.33,21.7,16.33,21.7Z" transform="translate(-80.62 -82.4)"/></g></svg>
